svgs/sharp-regular/can-food.svg

<svg xmlns="http://www.w3.org/2000/svg" viewBox="0 0 384 512"><!--! Font Awesome Pro 6.6.0 by @fontawesome - https://fontawesome.com License - https://fontawesome.com/license (Commercial License) Copyright 2024 Fonticons, Inc. --><path d="M320 434.3c-3.4 3-10.2 7.5-21.7 12.2C273.5 456.6 235.9 464 192 464s-81.5-7.4-106.3-17.5c-11.5-4.7-18.3-9.2-21.7-12.2l0-144.8c13.8 6 30 11 48 14.7l0 63.9 160 0 0-63.9c18-3.8 34.2-8.8 48-14.7l0 144.8zm48 5.7l0-200 0-168c0-39.8-78.8-72-176-72S16 32.2 16 72l0 168 0 200c0 39.8 78.8 72 176 72s176-32.2 176-72zM304 72c0 13.3-50.1 24-112 24S80 85.3 80 72s50.1-24 112-24s112 10.7 112 24zM224 320l-64 0 0-64 64 0 0 64z"/></svg>

<svg xmlns="http://www.w3.org/2000/svg" viewBox="0 0 384 512"><!--! Font Awesome Pro 6.4.0 by @fontawesome - https://fontawesome.com License - https://fontawesome.com/license (Commercial License) Copyright 2023 Fonticons, Inc. --><path d="M320 434.3c-3.4 3-10.2 7.5-21.7 12.2C273.5 456.6 235.9 464 192 464s-81.5-7.4-106.3-17.5c-11.5-4.7-18.3-9.2-21.7-12.2V289.4c13.8 6 30 11 48 14.7V368H272V304.1c18-3.8 34.2-8.8 48-14.7V434.3zm48 5.7V240 72c0-39.8-78.8-72-176-72S16 32.2 16 72V240 440c0 39.8 78.8 72 176 72s176-32.2 176-72zM304 72c0 13.3-50.1 24-112 24S80 85.3 80 72s50.1-24 112-24s112 10.7 112 24zM224 320H160V256h64v64z"/></svg>
